X:17
T:Palatine Lass. JJo8.017, The
%%VWML:JohnsonVol8-2184-p9-0
F:http://www.vwml.org/record/JohnsonVol8/2184/p9
Z:Transcribed by Simon Furey and Lewis Jones
Z:vmp.Simon Wilson 2013 www.village-music-project.org.uk
Z:Dance added by John Chambers 2017
M:C|
L:1/8
%Q:1/2=90
K:D
|: f/g/ |\
afdfe2cA | ddfa eeAf/g/ |\
afdfe2cA | ddgfe3 :|
|: e/d/ |\
ceAa gfg2 | aAaA ag/f/ ef/g/ |\
aAa2gGg2 | fe/d/ Acd2 :|
W: First Cu set to the 2d Wo, the Man cast off
W:the Wo. foot it down the Middle .| set
W:to the 2d Man the Wo. cast up. the Man
W:foot it up the Middle to the top :| Right hands
W:across :||. Cross over and turn :||: Lead thro' the
W:Bottom and cast up .| Right hands across at
W:Bottom :| Lead thro' the top and cast off :||.
W:Right hands and Left :||:
W:
T:Lasses of Lynn. JJo8.018, The
B:J.Johnson Choice Collection Vol 8 1758
Z:vmp.Simon Wilson 2013 www.village-music-project.org.uk
Z:Dance added by John Chambers 2017
M:C|
L:1/8
%Q:1/2=80
K:G
c |\
B>A (B/c/d) G2-GF/E/ | DFAB cA2c |\
B>A (B/c/d) G2Gg | d>edc BG2 :|
|: g |\
"tr"f>edg "tr"f>ede | fgaB cA2g |\
"tr"f>efg "tr"f>ede | (f/g/a) (A/B/c) BG2 :|
W: Cast off two Cu .| Lead up to
W:the top and cast off :| Right hand
W:across at Bottom :||. Right hands
W:and Left at top :||: foot it at
W:both Corners and turn :|| Lead
W:out on both Sides and turn :||:
W:
